X:323
T: I BIN E BERGMA WOHLGEMUTH
N: E1473
O: Europa, Mitteleuropa, Schweiz, Kanton Bern, Siebenthal
R: Staende -, Hirten -, Alpen - Lied, Kuhreihen
M: 3/8
L: 1/16
K: G
D2 | G4A2 | B2A2G2 | d2c2B2 | A4z2
B2G2A2 | B2G2A2 | B2G2D2 | z4
d2 | G3AB2 | A4
d2 | G3AB2 | A4
G2 | B2B2G2 | A2A2
G2 | B2B2G2 | A2A2
G2 | A4D2 | D4
D2 | G4A2 | B2A2G2 | d3cB2 | A6
d3cB2 | A4
A2 | d4B2 | ^c4A2 | d2c2B2 | A4
A2 | c2c2B2 | B4G2 | A2G2F2 | G4z2
d4ed | d4ed | d4dc | B2G2z
G | A3BA2 | A4A2 | A3BA2 | A3DD2
B2G2G2 | A2D2D2 | B2G2G2 | ADD2
D2 | G3AG2 | B3AG2 | d6 | c4A2 | BGG2

